assets/svg/go-cleaning-man.svg

<svg width="56" height="83" viewBox="0 0 56 83" fill="none" xmlns="http://www.w3.org/2000/svg">
<path d="M23.8974 18.3136C28.9602 18.3136 33.0649 14.2149 33.0649 9.15757C33.0649 4.10029 28.9602 0 23.8974 0C18.8346 0 14.7301 4.10029 14.7301 9.15757C14.7301 14.2149 18.8346 18.3136 23.8974 18.3136Z" fill="#32B8E9"/>
<path d="M55.983 76.0396C55.7201 74.0848 53.8934 71.6497 49.8457 72.2277C45.7171 72.8176 42.807 72.9631 41.2229 72.1336V52.6506C42.891 51.6906 43.7194 49.6669 43.0997 47.7655L41.2229 42.0013V9.15623C41.2229 8.00831 40.2905 7.07695 39.1414 7.07695C37.9922 7.07695 37.0598 8.00831 37.0598 9.15623V29.2155L36.0327 26.0608C35.0883 23.1641 32.405 21.2174 29.3547 21.2174H18.4405C15.3913 21.2174 12.7082 23.1639 11.7638 26.0622L4.69541 47.7655C4.46571 48.4704 4.45314 49.1879 4.59029 49.8662C1.87297 51.3258 0 54.1595 0 57.451C0 57.7421 2.18046 71.6754 2.18046 71.6754C2.41351 73.0655 3.61683 74.0849 5.02889 74.0849H12.279C13.6911 74.0849 14.8944 73.0655 15.1273 71.6754C15.1273 71.6754 17.3077 57.7421 17.3077 57.451C17.3077 54.176 15.4534 51.3548 12.7583 49.8883L13.6034 47.2945C17.4814 49.0131 20.0831 53.0753 20.0831 57.451C20.0831 57.7228 20.0831 57.9574 17.8645 72.1329C17.4938 74.3459 15.8796 76.0478 13.8101 76.6266V78.793C13.8101 81.116 15.6965 83 18.0218 83C20.3486 83 22.2337 81.117 22.2337 78.793V53.6485H25.562V78.793C25.562 81.117 27.447 83 29.7737 83C32.1007 83 33.9857 81.117 33.9857 78.793V46.6594L35.1835 50.3377C35.5121 51.3473 36.2099 52.1091 37.0603 52.6054V73.8158C36.8435 74.6812 35.3766 81.081 39.1419 82.1041C50.6414 85.2295 46.5747 77.8372 49.9612 78.349C53.7769 78.9257 56.2296 77.8779 55.983 76.0396ZM14.5321 57.451H2.77483C2.77483 55.1732 4.09317 53.2165 5.99531 52.2431C6.39015 52.5714 6.84771 52.8372 7.36612 53.0057C8.77399 53.4656 10.2459 53.1234 11.3089 52.2416C13.2125 53.2145 14.5321 55.1722 14.5321 57.451Z" fill="#32B8E9"/>
</svg>

<svg width="56" height="83" fill="none" xmlns="http://www.w3.org/2000/svg"><path d="M23.897 18.314c5.063 0 9.168-4.1 9.168-9.156C33.065 4.1 28.96 0 23.897 0c-5.062 0-9.167 4.1-9.167 9.158 0 5.057 4.105 9.156 9.167 9.156z" fill="#32B8E9"/><path d="M55.983 76.04c-.263-1.955-2.09-4.39-6.137-3.812-4.129.59-7.039.735-8.623-.094V52.65a4.155 4.155 0 001.877-4.886l-1.877-5.764V9.156a2.081 2.081 0 00-4.163 0v20.06l-1.027-3.155a7.006 7.006 0 00-6.678-4.844H18.44a7.004 7.004 0 00-6.676 4.845L4.695 47.766a4.107 4.107 0 00-.105 2.1C1.873 51.326 0 54.16 0 57.451c0 .291 2.18 14.224 2.18 14.224a2.887 2.887 0 002.849 2.41h7.25a2.887 2.887 0 002.848-2.41s2.18-13.933 2.18-14.224c0-3.275-1.854-6.096-4.549-7.563l.845-2.593c3.878 1.718 6.48 5.78 6.48 10.156 0 .272 0 .506-2.218 14.682a5.624 5.624 0 01-4.055 4.494v2.166A4.21 4.21 0 0018.022 83a4.209 4.209 0 004.212-4.207V53.648h3.328v25.145A4.209 4.209 0 0029.774 83a4.209 4.209 0 004.212-4.207V46.659l1.198 3.679c.328 1.01 1.026 1.771 1.876 2.267v21.21c-.217.866-1.683 7.266 2.082 8.29 11.5 3.124 7.433-4.268 10.82-3.756 3.815.577 6.268-.471 6.021-2.31zM14.533 57.45H2.774c0-2.278 1.318-4.234 3.22-5.208.395.328.853.594 1.371.763 1.408.46 2.88.117 3.943-.764 1.904.973 3.223 2.93 3.223 5.209z" fill="#32B8E9"/></svg>
